Papirus/22x22/apps/allegorithmic-Substance_Designer.svg

<svg width="22" height="22" version="1.1" xmlns="http://www.w3.org/2000/svg">
 <g transform="translate(-1,-1)">
  <path d="m12.034982 1.4999937c-0.554 0-1 0.446022-1 1.0000252v0.9999874h-6.0349822c-1.1079695 0-1.9999998 0.892044-1.9999998 2.0000125v6.9999492h-1c-0.554 0-1 0.446022-1 1.000026 0 0.554003 0.446 0.999987 1 0.999987h1v6c0 1.107968 0.8920303 2.000012 1.9999998 2.000012h14c1.107969 0 2.001781-0.892044 1.999999-2.000012v-6h1c0.554 0 1.000001-0.445984 1.000001-0.999987 0-0.554004-0.446001-1.000026-1.000001-1.000026h-1v-6.9999492c0-1.1079685-0.89203-2.0000125-1.999999-2.0000125h-5.965018v-0.9999874c0-0.5540032-0.446001-1.0000252-1-1.0000252z" style="fill:#000001;opacity:.2"/>
  <path d="m12.034982 1c-0.554 0-1 0.446022-1 1.0000252v0.9999874h-6.0349822c-1.1079695 0-1.9999998 0.892044-1.9999998 2.0000125v6.9999499h-1c-0.554 0-1 0.446022-1 1.000025s0.446 0.999987 1 0.999987h1v6c0 1.107969 0.8920303 2.000013 1.9999998 2.000013h14c1.107969 0 2.001781-0.892044 1.999999-2.000013v-6h1c0.554 0 1.000001-0.445984 1.000001-0.999987s-0.446001-1.000025-1.000001-1.000025h-1v-6.9999499c0-1.1079685-0.89203-2.0000125-1.999999-2.0000125h-5.965018v-0.9999874c0-0.5540032-0.446001-1.0000252-1-1.0000252z" style="fill:#f54b3e"/>
  <path d="m12.035156 1c-0.553999 0-1 0.4459842-1 0.9999874v0.5000315c0-0.5540032 0.446001-1.0000252 1-1.0000252s1 0.446022 1 1.0000252v-0.5000315c0-0.5540032-0.446001-0.9999874-1-0.9999874zm-7.0351562 2.0000126c-1.1079694 0-1.9999998 0.8920063-1.9999998 1.9999747v0.5000315c0-1.1080063 0.8920304-2.0000125 1.9999998-2.0000125h6.0351562v-0.4999937zm8.0351562 0v0.4999937h5.964844c1.107969 0 2 0.8920062 2 2.0000125v-0.5000315c0-1.1079684-0.892031-1.9999747-2-1.9999747zm-11.035156 8.9999994c-0.554 0-1 0.445985-1 0.999988 0 0.08882 0.029305 0.168189 0.050781 0.250205 0.1126671-0.429015 0.4839123-0.75001 0.949219-0.75001h1v-0.499994zm19 0v0.499994h1c0.465307 0 0.836552 0.320882 0.949219 0.75001 0.021467-0.081638 0.050781-0.161386 0.050781-0.250205 0-0.554003-0.445999-0.999988-1-0.999988z" style="fill:#fcffff;opacity:.2"/>
  <path d="m12 6.9999621-6.0000003 3 3e-7 2.9999999 8.399997 2.799987-2.399997 1.2-3-1.499981v-0.499993l-3.0000003-1.035704 3e-7 3.035678 6 3.000038 5.999999-3.000038v-3l-8.3999627-2.799874 2.3999637-1.2 3 1.500019v0.499994l2.999999 1.035704v-3.035717z" style="fill:#0d0000;opacity:.2"/>
  <path d="m 12,6.0000125 -6.0000003,3 L 6,12.000012 14.399997,14.8 12,16 9,14.500019 V 14.000025 L 5.9999997,12.964321 6,16 12,19.000038 17.999999,16 V 13 L 9.6000363,10.200126 12,9.0001259 15,10.500145 v 0.499993 l 2.999999,1.035704 V 9.0001259 Z" style="fill:#fdffff"/>
 </g>
</svg>

<svg xmlns="http://www.w3.org/2000/svg" width="22" height="22" version="1.1">
 <g transform="translate(-1,-1)">
  <path style="opacity:0.2" d="M 12,1.5 C 11.446,1.5 11,1.946 11,2.5 V 3.5 H 5 C 3.892,3.5 3,4.392 3,5.5 V 12.5 H 2 C 1.446,12.5 1,12.946 1,13.5 1,14.054 1.446,14.5 2,14.5 H 3 V 20.5 C 3,21.608 3.892,22.5 5,22.5 H 19 C 20.108,22.5 21,21.608 21,20.5 V 14.5 H 22 C 22.554,14.5 23,14.054 23,13.5 23,12.946 22.554,12.5 22,12.5 H 21 V 5.5 C 21,4.392 20.108,3.5 19,3.5 H 13 V 2.5 C 13,1.946 12.554,1.5 12,1.5 Z"/>
  <path style="fill:#f04b23" d="M 12,1 C 11.446,1 11,1.446 11,2 V 3 H 5 C 3.892,3 3,3.892 3,5 V 12 H 2 C 1.446,12 1,12.446 1,13 1,13.554 1.446,14 2,14 H 3 V 20 C 3,21.108 3.892,22 5,22 H 19 C 20.108,22 21,21.108 21,20 V 14 H 22 C 22.554,14 23,13.554 23,13 23,12.446 22.554,12 22,12 H 21 V 5 C 21,3.892 20.108,3 19,3 H 13 V 2 C 13,1.446 12.554,1 12,1 Z"/>
  <path style="opacity:0.2" d="M 12,6.5 6,9.5 V 12.5 L 14.4,15.3 12,16.5 9,15 V 14.5 L 6,13.464 V 16.5 L 12,19.5 18,16.5 V 13.5 L 9.6,10.7 12,9.5 15,11 V 11.5 L 18,12.536 V 9.5 Z"/>
  <path style="fill:#fdffff" d="M 12,6 6,9 V 12 L 14.4,14.8 12,16 9,14.5 V 14 L 6,12.964 V 16 L 12,19 18,16 V 13 L 9.6,10.2 12,9 15,10.5 V 11 L 18,12.036 V 9 Z"/>
  <path style="opacity:0.2;fill:#ffffff" d="M 12,1 C 11.446,1 11,1.446 11,2 V 2.5 C 11,1.946 11.446,1.5 12,1.5 12.554,1.5 13,1.946 13,2.5 V 2 C 13,1.446 12.554,1 12,1 Z M 5,3 C 3.892,3 3,3.892 3,5 V 5.5 C 3,4.392 3.892,3.5 5,3.5 H 11 V 3 Z M 13,3 V 3.5 H 19 C 20.108,3.5 21,4.392 21,5.5 V 5 C 21,3.892 20.108,3 19,3 Z M 2,12 C 1.446,12 1,12.446 1,13 1,13.089 1.0293,13.168 1.0508,13.25 1.1634,12.821 1.5347,12.5 2,12.5 H 3 V 12 Z M 21,12 V 12.5 H 22 C 22.465,12.5 22.837,12.821 22.949,13.25 22.971,13.168 23,13.089 23,13 23,12.446 22.554,12 22,12 Z"/>
 </g>
</svg>
